svg/emoji_u1f92f.svg

<?xml version="1.0" encoding="UTF-8" standalone="no"?>
<svg
   width="128"
   height="128"
   version="1.1"
   id="svg14360"
   sodipodi:docname="emoji_u1f92f.svg"
   inkscape:version="1.2.2 (732a01da63, 2022-12-09)"
   xmlns:inkscape="http://www.inkscape.org/namespaces/inkscape"
   xmlns:sodipodi="http://sodipodi.sourceforge.net/DTD/sodipodi-0.dtd"
   xmlns="http://www.w3.org/2000/svg"
   xmlns:svg="http://www.w3.org/2000/svg">
  <defs
     id="defs14364" />
  <sodipodi:namedview
     id="namedview14362"
     pagecolor="#ffffff"
     bordercolor="#000000"
     borderopacity="0.25"
     inkscape:showpageshadow="2"
     inkscape:pageopacity="0.0"
     inkscape:pagecheckerboard="0"
     inkscape:deskcolor="#d1d1d1"
     showgrid="false"
     inkscape:zoom="8.484375"
     inkscape:cx="55.867403"
     inkscape:cy="29.937385"
     inkscape:window-width="1366"
     inkscape:window-height="697"
     inkscape:window-x="-8"
     inkscape:window-y="-8"
     inkscape:window-maximized="1"
     inkscape:current-layer="svg14360" />
  <path
     d="m 50.057,22.193 c -0.218,12.846 -1.477,40.399816 -2.504,47.051816 2.701,2.043 4.805,-0.063 5.765,-1.888 2.228,-4.232 8.602,-4.627 15.22,-4.968 2.927,-0.15 5.819,0.478 8.65,1.002 C 75.988,51.466816 75.301,22.193 75.301,22.193 Z"
     fill="#b9856a"
     fill-rule="evenodd"
     stroke-width="3.78"
     stroke-linecap="round"
     stroke-linejoin="round"
     id="path14302"
     sodipodi:nodetypes="ccccccc" />
  <path
     id="path14304"
     d="M 17.517602,40.281534 11.093898,49.693643 6.3384949,41.801065 C 0.8200127,56.370175 0,87.238178 0,92.330078 c 0,13.829982 28.559098,25.029302 63.789062,25.029302 35.239965,0 63.791018,-11.20932 63.791018,-25.029302 0,-4.936066 -1.14441,-30.016422 -5.71545,-45.300497 l -1.21212,1.125 -2.28275,-1.322266 c 0,0 -4.74551,3.887502 -7.59114,4.533204 -2.8726,0.651851 -8.77906,-0.845704 -8.77906,-0.845704 l -3.401773,-3.128906 c 0,0 -2.691853,0.292637 -4.00504,0.04297 -1.156075,-0.221387 -3.288192,-1.335938 -3.288192,-1.335938 l -2.009037,-2.699218 -4.89505,4.144531 -5.840916,-3.636719 -5.978699,2.21875 c -1.911159,-0.253361 -3.52992,-3.498926 -5.470391,-3.414062 l -5.664031,2.910156 c 0,0 -3.359148,-3.899136 -5.477837,-3.544922 -1.609828,0.26812 -3.157855,3.914063 -3.157856,3.914063 l -4.124204,-1.64258 c -1.306153,2.105602 -3.830536,7.907504 -7.74196,3.890625 l -7.006493,-0.0078 -5.245095,-5.195313 -6.513077,3.058594 z"
     style="fill:#fcc21b;fill-opacity:1"
     sodipodi:nodetypes="cccssscccccccccccccccccccccc" />
  <g
     fill="#bbbbbb"
     id="g14326"
     transform="translate(-0.81666972,3.450116)">
    <ellipse
       ry="2.152"
       rx="1.911"
       cy="28.605"
       cx="20.49"
       id="ellipse14318" />
    <ellipse
       ry="1.908"
       rx="1.6720001"
       cy="28.829"
       cx="18.556999"
       id="ellipse14320" />
    <ellipse
       ry="2.921"
       rx="2.7509999"
       cy="26.426001"
       cx="19.532"
       id="ellipse14322" />
    <ellipse
       ry="2.97"
       rx="3.1960001"
       cy="27.039"
       cx="23.066999"
       id="ellipse14324" />
  </g>
  <g
     fill="#bbbbbb"
     id="g14336"
     transform="translate(13.790055,-8.4861879)">
    <ellipse
       ry="3.1589999"
       rx="3.017"
       cy="30.908001"
       cx="92.657997"
       id="ellipse14328" />
    <ellipse
       ry="3.7579999"
       rx="3.3900001"
       cy="26.973"
       cx="96.483002"
       id="ellipse14330" />
    <ellipse
       ry="2.951"
       rx="2.4690001"
       cy="27.094"
       cx="92.060997"
       id="ellipse14332" />
    <ellipse
       ry="1.898"
       rx="2.1659999"
       cy="31.294001"
       cx="96.907997"
       id="ellipse14334" />
  </g>
  <path
     d="m 86.85035,15.41847 h -0.0052 c 0,-0.03501 0.0052,-0.06873 0.0052,-0.103742 A 8.5067416,8.5067416 0 0 0 76.580016,6.9934236 11.27273,11.27273 0 0 0 66.155367,2.5905966e-7 11.242904,11.242904 0 0 0 57.402242,4.1807525 9.7775655,9.7775655 0 0 0 52.976401,3.1174098 9.8035002,9.8035002 0 0 0 43.218287,11.956122 c -5.531976,0.294364 -9.973377,4.829133 -10.047292,10.459661 a 10.617866,10.617866 0 0 0 10.480409,10.756619 c 0.457756,0.0039 0.899951,-0.02593 1.342146,-0.07911 a 14.126897,14.126897 0 0 0 12.77308,8.085294 c 3.402697,0 6.520107,-1.205985 8.960608,-3.206884 a 11.149537,11.149537 0 0 0 6.662749,2.20838 c 5.124793,0 9.437815,-3.436412 10.781258,-8.134571 a 8.5119287,8.5119287 0 0 0 2.684292,0.438305 8.5339735,8.5339735 0 0 0 8.532679,-8.532677 8.5378639,8.5378639 0 0 0 -8.536569,-8.532678 z"
     fill="#ecece5"
     id="path14354"
     style="stroke-width:0.999999" />
  <g
     fill="#bbbbbb"
     id="g14344"
     transform="translate(-8.6040516,-4.7145488)">
    <ellipse
       ry="1.446"
       rx="2.4289999"
       cy="9.6540003"
       cx="100.731"
       id="ellipse14338" />
    <ellipse
       ry="1.891"
       rx="2.4489999"
       cy="11.237"
       cx="100.656"
       id="ellipse14340" />
    <ellipse
       ry="2.3529999"
       rx="2.0739999"
       cy="10.339"
       cx="104.294"
       id="ellipse14342" />
  </g>
  <g
     fill="#bbb"
     id="g14352">
    <ellipse
       ry="2.129"
       rx="2.063"
       cy="11.704"
       cx="23.888"
       id="ellipse14346" />
    <ellipse
       ry="3.315"
       rx="2.505"
       cy="10.146"
       cx="20.218"
       id="ellipse14348" />
    <ellipse
       ry="3.083"
       rx="3.381"
       cy="8.226"
       cx="25.241"
       id="ellipse14350" />
  </g>
  <path
     d="m 91.862325,17.045902 c 1.932171,1.95292 0.564089,6.428037 -0.763792,7.888188 -2.615563,2.867135 -7.416166,2.198008 -9.343151,1.785637 -0.521298,-0.112817 -0.605587,-0.07392 -0.778056,0.02983 -0.151719,0.09337 -0.220449,0.239901 -0.389028,0.590026 -0.618553,1.336959 -2.222645,3.929182 -5.60589,4.971777 -3.525889,1.086684 -6.85078,-0.570575 -8.404297,-1.558705 -0.590026,-0.373467 -0.614665,-0.383841 -0.881798,-0.378655 -0.269725,0.0052 -0.534264,0.200999 -0.854563,0.45257 -1.406985,1.106135 -4.617761,3.059056 -9.570084,2.773767 -4.855068,-0.281396 -7.632726,-3.270426 -8.587142,-4.810977 -0.181546,-0.294364 -0.378652,-0.540748 -0.605587,-0.565386 -0.259351,-0.02464 -0.549825,0.241197 -0.766385,0.457756 -2.065737,2.011273 -8.567689,2.61686 -10.721605,-0.811771 2.194116,3.516811 5.582548,5.258359 9.05916,5.302448 0.457756,0.0039 0.899952,-0.02593 1.342147,-0.07911 a 14.126897,14.126897 0 0 0 12.77308,8.085294 c 3.402696,0 6.520106,-1.205985 8.960607,-3.206884 a 11.149537,11.149537 0 0 0 6.66275,2.20838 c 5.124793,0 9.437814,-3.436412 10.781257,-8.134572 a 8.5119287,8.5119287 0 0 0 2.684293,0.438305 8.5339735,8.5339735 0 0 0 8.532676,-8.532676 c -0.0091,-2.50923 -1.268231,-5.341353 -3.525889,-6.905244 z"
     fill="#c6bca5"
     id="path14356"
     style="stroke-width:0.999999" />
  <ellipse
     transform="matrix(0.10715774,-0.99424203,0.99346313,0.11415345,0,0)"
     ry="14.980989"
     rx="16.563437"
     cy="89.811546"
     cx="-57.915833"
     fill="#ffffff"
     id="ellipse14306"
     style="stroke:#fcc21b;stroke-width:10.0001;stroke-dasharray:none;stroke-opacity:1;paint-order:stroke fill markers" />
  <path
     d="m 121.22732,31.920743 c -3.505,3.03 -2.913,3.407 -5.726,2.904 -2.569,-0.46 -0.709,-2.422 0.515,-6.177 0.854,-2.621 3.989,-4.053 5.404,-1.86 1.635,2.532 1.892,3.33 -0.193,5.133 z m -0.595,12.354 c -3.266,1.397 -5.068,0.324 -4.577,-1.788 0.235,-1.008 0.835,-2.275 3.81,-2.803 1.672,-0.296 4.852,0.448 3.816,2.13 -1.296,2.103 -1.293,1.71 -3.049,2.461 z m -14.58038,-2.259604 c 0,0.961 -1.33,1.616 -2.086,1.616 -0.757,0 -0.653,-0.655 -0.653,-1.616 0,-0.962 0.613,-1.741 1.37,-1.741 0.756,0 1.37,0.779 1.37,1.74 z M 4.5888538,28.584588 c 1.679999,1.124 0.844,0.718 3.719999,2.129 2.3440002,1.15 1.7120002,-1.153 0.488,-4.909 -0.854,-2.62 -4.056999,-3.745001 -5.471999,-1.553 -1.6350003,2.533 -1.0260003,2.8 1.264,4.333 z M 19.132455,46.855122 c 3.266,1.397 5.069,0.324 4.577,-1.789 -0.234,-1.007 -2.454,-0.165 -3.81,-2.802 -0.777,-1.509 -4.851,0.448 -3.815,2.129 1.296,2.103 1.293,1.71 3.048,2.462 z"
     fill="#fcc21b"
     id="path14358"
     sodipodi:nodetypes="cccccccccccssscccscccccccc" />
  <path
     d="m 88.429697,67.741615 c -0.181412,2.706051 -2.492597,4.770242 -5.152093,4.607904 -2.666752,-0.156094 -4.682841,-2.492514 -4.50022,-5.197316 0.174155,-2.712294 2.475665,-4.770241 5.143627,-4.606655 2.666752,0.156095 4.691307,2.492514 4.508686,5.197316"
     fill="#2f2f2f"
     id="path14308"
     style="stroke-width:1" />
  <ellipse
     transform="matrix(0.9969817,-0.07763693,0.07284837,0.99734303,0,0)"
     ry="16.566816"
     rx="14.977734"
     cy="71.133743"
     cx="39.913258"
     fill="#ffffff"
     id="ellipse14310"
     style="stroke:#fcc21b;stroke-width:10.0001;stroke-dasharray:none;stroke-opacity:1;paint-order:stroke fill markers" />
  <path
     d="m 50.274926,66.715139 c 0.302353,2.701056 -1.596423,5.172341 -4.245034,5.516997 -2.655868,0.353398 -5.05655,-1.560943 -5.358903,-4.253257 -0.318075,-2.701056 1.581911,-5.171092 4.237778,-5.52449 2.648611,-0.344656 5.05655,1.568436 5.367368,4.26075"
     fill="#2f2f2f"
     id="path14312"
     style="stroke-width:1" />
  <path
     d="m 77.60773,100.42349 c 0,8.0215 -6.090882,11.40233 -13.60773,11.40233 -7.51595,0 -13.607731,-3.38083 -13.607731,-11.40233 0,-8.022405 6.090883,-17.640486 13.607731,-17.640486 7.51595,0 13.60773,9.624367 13.60773,17.640486 z"
     fill="#ed6c30"
     id="path14316"
     style="stroke-width:0.999999" />
  <rect
     style="font-variation-settings:'opsz' 12, 'wght' 400;opacity:1;fill:#fcc21b;fill-opacity:1;stroke:none;stroke-width:10;stroke-linecap:round;stroke-dasharray:none;stroke-opacity:1;paint-order:stroke fill markers"
     id="rect15825"
     width="9.8268881"
     height="3.4180479"
     x="58.998158"
     y="57.458561" />
</svg>

<?xml version="1.0" encoding="UTF-8" standalone="no"?>
<!DOCTYPE svg PUBLIC "-//W3C//DTD SVG 1.1//EN" "http://www.w3.org/Graphics/SVG/1.1/DTD/svg11.dtd">
<svg width="100%" height="100%" viewBox="0 0 128 128" version="1.1" xmlns="http://www.w3.org/2000/svg" xmlns:xlink="http://www.w3.org/1999/xlink" xml:space="preserve" xmlns:serif="http://www.serif.com/" style="fill-rule:evenodd;clip-rule:evenodd;stroke-linejoin:round;stroke-miterlimit:2;">
    <path id="path14302" d="M50.057,22.193C49.839,35.039 48.58,62.593 47.553,69.245C50.254,71.288 52.358,69.182 53.318,67.357C55.546,63.125 61.92,62.73 68.538,62.389C71.465,62.239 74.357,62.867 77.188,63.391C75.988,51.467 75.301,22.193 75.301,22.193L50.057,22.193Z" style="fill:rgb(188,169,164);"/>
    <path id="path14304" d="M17.518,40.282L11.094,49.694L6.338,41.801C0.82,56.37 0,87.238 0,92.33C0,106.16 28.559,117.359 63.789,117.359C99.029,117.359 127.58,106.15 127.58,92.33C127.58,87.394 126.436,62.314 121.865,47.03L120.653,48.155L118.37,46.832C118.37,46.832 113.624,50.72 110.779,51.366C107.906,52.017 102,50.52 102,50.52L98.598,47.391C98.598,47.391 95.906,47.684 94.593,47.434C93.437,47.212 91.305,46.098 91.305,46.098L89.296,43.399L84.4,47.543L78.56,43.907L72.581,46.125C70.67,45.872 69.051,42.626 67.11,42.711L61.446,45.621C61.446,45.621 58.087,41.722 55.969,42.076C54.359,42.345 52.811,45.991 52.811,45.991L48.687,44.348C47.38,46.454 44.856,52.255 40.945,48.239L33.938,48.231L28.693,43.035L22.18,46.094L17.518,40.282Z" style="fill:rgb(252,194,27);fill-rule:nonzero;"/>
    <g id="g14326" transform="matrix(1,0,0,1,-0.81667,3.45012)">
        <ellipse id="ellipse14318" cx="20.49" cy="28.605" rx="1.911" ry="2.152" style="fill:rgb(203,219,224);"/>
        <ellipse id="ellipse14320" cx="18.557" cy="28.829" rx="1.672" ry="1.908" style="fill:rgb(203,219,224);"/>
        <ellipse id="ellipse14322" cx="19.532" cy="26.426" rx="2.751" ry="2.921" style="fill:rgb(203,219,224);"/>
        <ellipse id="ellipse14324" cx="23.067" cy="27.039" rx="3.196" ry="2.97" style="fill:rgb(203,219,224);"/>
    </g>
    <g id="g14336" transform="matrix(1,0,0,1,13.7901,-8.48619)">
        <ellipse id="ellipse14328" cx="92.658" cy="30.908" rx="3.017" ry="3.159" style="fill:rgb(203,219,224);"/>
        <ellipse id="ellipse14330" cx="96.483" cy="26.973" rx="3.39" ry="3.758" style="fill:rgb(203,219,224);"/>
        <ellipse id="ellipse14332" cx="92.061" cy="27.094" rx="2.469" ry="2.951" style="fill:rgb(203,219,224);"/>
        <ellipse id="ellipse14334" cx="96.908" cy="31.294" rx="2.166" ry="1.898" style="fill:rgb(203,219,224);"/>
    </g>
    <path id="path14354" d="M86.852,15.418L86.845,15.418C86.845,15.383 86.85,15.35 86.85,15.315C86.85,10.648 83.01,6.809 78.344,6.809C77.751,6.809 77.16,6.871 76.58,6.993C74.848,2.773 70.718,0.002 66.155,0C62.758,-0.002 59.536,1.537 57.402,4.181C56.031,3.483 54.515,3.119 52.976,3.117C47.961,3.116 43.712,6.965 43.218,11.956C37.686,12.25 33.245,16.785 33.171,22.416C33.17,22.462 33.17,22.509 33.17,22.555C33.17,28.329 37.879,33.098 43.651,33.172C44.109,33.176 44.551,33.146 44.994,33.093C47.326,38.023 52.313,41.18 57.767,41.179C61.169,41.179 64.287,39.973 66.727,37.972C68.652,39.406 70.99,40.18 73.39,40.18C78.515,40.18 82.828,36.744 84.171,32.046C85.037,32.335 85.943,32.483 86.856,32.484C91.536,32.483 95.388,28.632 95.388,23.951C95.385,19.27 91.533,15.419 86.852,15.418Z" style="fill:rgb(236,240,241);fill-rule:nonzero;"/>
    <g id="g14344" transform="matrix(1,0,0,1,-8.60405,-4.71455)">
        <ellipse id="ellipse14338" cx="100.731" cy="9.654" rx="2.429" ry="1.446" style="fill:rgb(203,219,224);"/>
        <ellipse id="ellipse14340" cx="100.656" cy="11.237" rx="2.449" ry="1.891" style="fill:rgb(203,219,224);"/>
        <ellipse id="ellipse14342" cx="104.294" cy="10.339" rx="2.074" ry="2.353" style="fill:rgb(203,219,224);"/>
    </g>
    <g id="g14352">
        <ellipse id="ellipse14346" cx="23.888" cy="11.704" rx="2.063" ry="2.129" style="fill:rgb(203,219,224);"/>
        <ellipse id="ellipse14348" cx="20.218" cy="10.146" rx="2.505" ry="3.315" style="fill:rgb(203,219,224);"/>
        <ellipse id="ellipse14350" cx="25.241" cy="8.226" rx="3.381" ry="3.083" style="fill:rgb(203,219,224);"/>
    </g>
    <path id="path14356" d="M91.862,17.046C93.794,18.999 92.426,23.474 91.099,24.934C88.483,27.801 83.682,27.132 81.755,26.72C81.234,26.607 81.15,26.646 80.977,26.75C80.826,26.843 80.757,26.989 80.588,27.34C79.97,28.677 78.366,31.269 74.982,32.311C71.457,33.398 68.132,31.741 66.578,30.753C65.988,30.379 65.963,30.369 65.696,30.374C65.427,30.379 65.162,30.575 64.842,30.827C63.435,31.933 60.224,33.886 55.272,33.6C50.417,33.319 47.639,30.33 46.685,28.789C46.503,28.495 46.306,28.249 46.079,28.224C45.82,28.199 45.529,28.465 45.313,28.682C43.247,30.693 36.745,31.299 34.591,27.87C36.785,31.387 40.173,33.128 43.65,33.172C44.108,33.176 44.55,33.146 44.992,33.093C47.325,38.023 52.312,41.18 57.765,41.179C61.168,41.179 64.285,39.973 66.726,37.972C68.651,39.406 70.988,40.18 73.389,40.18C78.513,40.18 82.827,36.744 84.17,32.046C85.035,32.335 85.942,32.483 86.854,32.484C91.535,32.483 95.386,28.632 95.387,23.951C95.378,21.442 94.119,18.61 91.861,17.046L91.862,17.046Z" style="fill:rgb(175,199,207);fill-rule:nonzero;"/>
    <g id="ellipse14306" transform="matrix(0.0938083,-0.870382,0.8697,0.0999325,10.3422,8.45069)">
        <ellipse cx="-57.916" cy="89.812" rx="16.563" ry="14.981" style="fill:white;"/>
    </g>
    <g id="ellipse143061" serif:id="ellipse14306" transform="matrix(-0.0938083,-0.870382,-0.8697,0.0999325,117.676,8.45069)">
        <ellipse cx="-57.916" cy="89.812" rx="16.563" ry="14.981" style="fill:white;"/>
    </g>
    <path id="path14358" d="M121.227,31.921C117.722,34.951 118.314,35.328 115.501,34.825C112.932,34.365 114.792,32.403 116.016,28.648C116.87,26.027 120.005,24.595 121.42,26.788C123.055,29.32 123.312,30.118 121.227,31.921ZM120.632,44.275C117.366,45.672 115.564,44.599 116.055,42.487C116.29,41.479 116.89,40.212 119.865,39.684C121.537,39.388 124.717,40.132 123.681,41.814C122.385,43.917 122.388,43.524 120.632,44.275ZM106.052,42.015C106.052,42.976 104.722,43.631 103.966,43.631C103.209,43.631 103.313,42.976 103.313,42.015C103.313,41.053 103.926,40.274 104.683,40.274C105.439,40.274 106.053,41.053 106.053,42.014L106.052,42.015ZM4.589,28.585C6.269,29.709 5.433,29.303 8.309,30.714C10.653,31.864 10.021,29.561 8.797,25.805C7.943,23.185 4.74,22.06 3.325,24.252C1.69,26.785 2.299,27.052 4.589,28.585ZM19.132,46.855C22.398,48.252 24.201,47.179 23.709,45.066C23.475,44.059 21.255,44.901 19.899,42.264C19.122,40.755 15.048,42.712 16.084,44.393C17.38,46.496 17.377,46.103 19.132,46.855Z" style="fill:rgb(252,194,27);fill-rule:nonzero;"/>
    <path id="path14308" d="M88.43,67.742C88.248,70.448 85.937,72.512 83.278,72.35C80.611,72.193 78.595,69.857 78.777,67.152C78.952,64.44 81.253,62.382 83.921,62.546C86.588,62.702 88.612,65.038 88.43,67.743" style="fill:rgb(47,47,47);fill-rule:nonzero;"/>
    <g id="path143081" serif:id="path14308" transform="matrix(-1,0,0,1,128.018,0)">
        <path d="M88.43,67.742C88.248,70.448 85.937,72.512 83.278,72.35C80.611,72.193 78.595,69.857 78.777,67.152C78.952,64.44 81.253,62.382 83.921,62.546C86.588,62.702 88.612,65.038 88.43,67.743" style="fill:rgb(47,47,47);fill-rule:nonzero;"/>
    </g>
    <path id="path14316" d="M77.608,100.423C77.608,108.445 71.517,111.826 64,111.826C56.484,111.826 50.392,108.445 50.392,100.423C50.392,92.401 56.483,82.783 64,82.783C71.516,82.783 77.608,92.407 77.608,100.423Z" style="fill:rgb(237,108,48);fill-rule:nonzero;"/>
</svg>
